icon/pk/sweater.svg

<svg width="48" height="48" fill="none" xmlns="http://www.w3.org/2000/svg"><path d="M14 37H6V24l5-15 8-5h10l9 5 4 15v13h-8v7H14v-7Z" fill="#2F88FF" stroke="#000" stroke-width="4" stroke-linecap="round" stroke-linejoin="round"/><path d="M34 28v9M14 28v9" stroke="#000" stroke-width="4" stroke-linecap="round" stroke-linejoin="round"/></svg>

<svg viewBox="0 0 48 48" fill="none" xmlns="http://www.w3.org/2000/svg" height="1em" width="1em">
  <path d="M14 37H6V24L11 9L19 4H24H29L38 9L42 24V37H34V44H24H14V37Z" fill="#2F88FF" stroke="black" stroke-width="4" stroke-linecap="round" stroke-linejoin="round"/>
  <path d="M34 28V37" stroke="black" stroke-width="4" stroke-linecap="round" stroke-linejoin="round"/>
  <path d="M14 28V37" stroke="black" stroke-width="4" stroke-linecap="round" stroke-linejoin="round"/>
</svg>
